X: 24
T:Blackthorne Stick
% Nottingham Music Database
S:Kevin Briggs, via EF
Y:AB
M:6/8
K:G
P:A
d|"G"gfg "C"ege|"G"dBG "C"AGE|"G"DGG "D7"FGA|"G"BAG "D7"A2d|
"G"gfg "C"age|"G"dBG "C"AGE|"G"DGG "D7"FGA|"G"BGG G2:|
P:B
d|"G"edd gdd|"G"edd gdd|"G"ede "C"gfe|"Am"dcB "D7"A2d|
"G"gfg "C"age|"G"dBG "C"AGE|"G"DGG "D7"FGA|"G"BGG G2:|


